!!!!SEGMENT: pl-gd--ee-1638--002-039_marenzio-luca--motettorum-pro-festis-totius-anni-in-festo-ss-pont-cum-esset-summus-pontifex.krn
!!!cenid: 15xx:1042
!!!COM: Marenzio, Luca
!!!COM-rismID: pe30003955
!!!CDT: ~1553-1599/08/22
!!!CNT: Italian
!!!GTL: Motettorum pro festis totius anni
!!!OTL: In festo SS. Pont./Cum esset summus Pontifex
!!!OMV: 039
!!!PDT: 1588
!!!AGN:
!!!YEC: Copyright 2022 Narodowy Instytut Fryderyka Chopina (https://polishscores.org)
!!!YEM: License CC-BY-4.0 (https://creativecommons.org/licenses/by/4.0)
!!!SMS-siglum: PL-GD
!!!SMS-shelfmark: Ee 1638
!!!SMS-variant:
!!!SMS-altvar:
!!!SMS-shelfwork: 002-039 G
!!!NIFC-rismSourceID: 1001202747
!!!NIFC-rismChildID: 990039238
!!!NIFC-islandoraID: pl-gd:57883
!!!URL-pdf-islandora: https://repozytorium.nifc.pl/islandora/object/pl-gd%3A57883/datastream/PDF/view
!!!URL-scan: https://polish.musicsources.pl/pl/lokalizacje/galeria/klocki-introligatorskie/655 @EN{Scan on Polish Music Sources Website} @PL{Skany w portalu Dziedzictwo Muzyki Polskiej w otwartym dostępie}
!!!IIIF: https://repozytorium.nifc.pl/islandora/object/pl-gd%3A57883/datastream/IIIF/view
!!!ONB-nifc: UWAGA: Cantus: s. 635 (prawa), Altus: s. 483 (prawa), Tenor: s. 331 (prawa), Bassus: s. 179 (prawa)
!!!AIN: 1 alto 1 bass 1 soprn 1 tenor
!!!key: F:lyd
**kern	**text	**kern	**text	**kern	**text	**kern	**text
*part4	*	*part3	*	*part2	*	*part1	*
*staff4	*	*staff3	*	*staff2	*	*staff1	*
*I"BASSO	*	*I"TENORE	*	*I"ALTO	*	*I"CANTO	*
*I'B	*	*I'T	*	*I'A	*	*I'S	*
*Ibass	*	*Itenor	*	*Ialto	*	*Isoprn	*
*ICvox	*	*ICvox	*	*ICvox	*	*ICvox	*
*clefF4	*	*clefC4	*	*clefC3	*	*clefC1	*
*k[b-]	*	*k[b-]	*	*k[b-]	*	*k[b-]	*
*F:lyd	*	*F:lyd	*	*F:lyd	*	*F:lyd	*
*M2/1	*	*M2/1	*	*M2/1	*	*M2/1	*
*met(C|)	*	*met(C|)	*	*met(C|)	*	*met(C|)	*
=1-	=1-	=1-	=1-	=1-	=1-	=1-	=1-
*xywh-#179:4557,550,3599,793	*	*xywh-#331:4497,523,3488,806	*	*xywh-#483:4563,485,3534,854	*	*xywh-#635:4504,481,3540,838	*
!LO:TX:a:i:t=In festo SS. Pont.	!	!LO:TX:a:i:t=In festo SS. Pont.	!	!LO:TX:a:i:t=In festo SS. Pont.	!	!LO:TX:a:i:t=In festo SS. Pont.	!
1C	DVm	0r	.	00r	.	00r	.
1BB-	eſ-	.	.	.	.	.	.
=2-	=2-	=2-	=2-	=2-	=2-	=2-	=2-
1AA	-ſet	1c	DVm	.	.	.	.
1GG	ſum-	1B-	eſ-	.	.	.	.
=3-	=3-	=3-	=3-	=3-	=3-	=3-	=3-
2FF/	-mus	1A	-ſt	1c	DVm	0r	.
1F	Pon-	.	.	.	.	.	.
.	.	1G	ſum-	1B-	eſ-	.	.
2E\	-ti-	.	.	.	.	.	.
=4-	=4-	=4-	=4-	=4-	=4-	=4-	=4-
1F	-fex	2F/	-mus	1A	-ſet	1cc	DVm
.	.	1f	Pon-	.	.	.	.
1r	.	.	.	1G	ſum-	1b-	eſ-
.	.	2e\	-ti-	.	.	.	.
=5-	=5-	=5-	=5-	=5-	=5-	=5-	=5-
0r	.	2f\	-fex	2F/	-mus	1a	-ſet
.	.	2F/	ter-	1f	Pon-	.	.
.	.	1c	-re-	.	.	1g	ſum-
.	.	.	.	2e\	-ti-	.	.
=6-	=6-	=6-	=6-	=6-	=6-	=6-	=6-
1r	.	2d\	-na	2f\	-fex	2f/	-mus
.	.	2A/	non	2c/	ter-	1cc	Pon-
*	*ij	*	*	*	*	*	*
1G	DVm	2.d\	me-	1g	-re-	.	.
!	!	!	!	!	!	!LO:N:acc=#	!
.	.	.	.	.	.	2bn\	-ti-
.	.	4G/	-tu-	.	.	.	.
=7-	=7-	=7-	=7-	=7-	=7-	=7-	=7-
1F	eſ-	1c	-it	2a\	-na	2cc\	-fex
.	.	.	.	2A/	non	2c/	ter-
1E	-ſet	2r	.	2.c/	me-	1g	-re-
*	*	*	*ij	*	*	*	*
.	.	2G/	DVm	.	.	.	.
.	.	.	.	4G/	-tu-	.	.
*	*	*xywh-#331:4504,1153,3473,753	*	*	*	*	*
!	!	!LO:SIC:v:t=custos F	!	!	!	!	!
!	!	!LO:LB:g=original	!	!	!	!	!
=8-	=8-	=8-	=8-	=8-	=8-	=8-	=8-
1D	ſum-	1F	eſ-	4d\	-it	2a\	-na
.	.	.	.	4e\	.	.	.
!	!	!	!	!	!	!LO:N:acc=#	!
.	.	.	.	4f\	.	2bn\	non
.	.	.	.	4d\	.	.	.
*xywh-#179:4541,1163,3528,738	*	*	*	*xywh-#483:4570,1159,3503,713	*	*	*
!LO:SIC:v:t=custos C	!	!	!	!LO:SIC:v:t=custos g	!	!	!
!LO:LB:g=original	!	!	!	!LO:LB:g=original	!	!	!
2C/	-mus	1E	-ſet	1g	.	2.cc\	me-
1G\	Pon-	.	.	.	.	.	.
.	.	.	.	.	.	4g/	-tu-
=9-	=9-	=9-	=9-	=9-	=9-	=9-	=9-
.	.	1D	ſum-	1r	.	2.a\	-it
2F#X\	-ti-	.	.	.	.	.	.
.	.	.	.	.	.	4b-y\	.
*	*	*	*	*	*	*xywh-#635:4465,1149,3563,722	*
!	!	!	!	!	!	!LO:SIC:v:t=custos cc	!
!	!	!	!	!	!	!LO:LB:g=original	!
2G\	-fex	2C/	-mus	1g	Du(m)	1cc	.
*	*Xij	*	*	*	*	*	*
4Fny\	.	1c\	Pon-	.	.	.	.
4E\	.	.	.	.	.	.	.
=10-	=10-	=10-	=10-	=10-	=10-	=10-	=10-
1D	.	.	.	1f	eſ-	1r	.
!	!	!LO:N:acc=#	!	!	!	!	!
.	.	2Bn\	-ti-	.	.	.	.
2r	.	1c	-fex	1e	-ſet	1cc	Du(m)
*	*	*	*Xij	*	*	*	*
2C/	ter-	.	.	.	.	.	.
=11-	=11-	=11-	=11-	=11-	=11-	=11-	=11-
1G	-re-	1r	.	1d	ſum-	1b-	eſ-
1A	-na	2r	.	2c/	-mus	1a	-ſet
.	.	2F/	ter-	1f\	Pon-	.	.
=12-	=12-	=12-	=12-	=12-	=12-	=12-	=12-
1r	.	1c	-re-	.	.	1g	ſum-
.	.	.	.	2e\	-ti-	.	.
2r	.	2d\	-na	1f	-fex	2f/	-mus
2BB-/	ter-	2d\	non	.	.	1b-\	Pon-
=13-	=13-	=13-	=13-	=13-	=13-	=13-	=13-
1F	-re-	2.c\	me-	2r	.	.	.
.	.	.	.	2c/	ter-	2a\	-ti-
.	.	4c\	-tu-	.	.	.	.
2G\	-na	2.B-y\	-it	1g	-re-	1d	-fex
2GG/	non	.	.	.	.	.	.
.	.	8A/	.	.	.	.	.
.	.	8G/	.	.	.	.	.
=14-	=14-	=14-	=14-	=14-	=14-	=14-	=14-
2.D/	me-	4F/	.	2a\	-na	2r	.
.	.	4G/	.	.	.	.	.
.	.	4A/	.	2d\	non	2f/	ter-
4D/	-tu-	4F/	.	.	.	.	.
1C	-it	2G/	.	2.e\	me-	1cc	-re-
*	*	*	*ij	*	*	*	*
.	.	2c\	DVm	.	.	.	.
.	.	.	.	4e\	-tu-	.	.
=15-	=15-	=15-	=15-	=15-	=15-	=15-	=15-
1r	.	1B-	eſ-	2.f\	-it	2dd\	-na
.	.	.	.	.	.	2d/	non
.	.	.	.	8e\	.	.	.
.	.	.	.	8d\	.	.	.
*xywh-#179:4509,1705,3497,723	*	*	*	*	*	*	*
!LO:SIC:v:t=custos F	!	!	!	!	!	!	!
!LO:LB:g=original	!	!	!	!	!	!	!
1F	Du(m)	1A	-ſet	1c	.	2.a\	me-
.	.	.	.	.	.	4a\	-tu-
*	*	*xywh-#331:4497,1744,3503,706	*	*	*	*	*
!	!	!LO:SIC:v:t=custos G	!	!	!	!	!
!	!	!LO:LB:g=original	!	!	!	!	!
=16-	=16-	=16-	=16-	=16-	=16-	=16-	=16-
1E-X	eſ-	1G	ſum-	1r	.	2b-\	-it
.	.	.	.	.	.	4a\	.
.	.	.	.	.	.	4g/	.
1D	-ſet	2F/	-mus	1f	Dum	2a\	.
*	*	*	*	*	*	*	*ij
.	.	1B-\	Pon-	.	.	2f/	ter-
*	*	*	*	*xywh-#483:4570,1708,3511,736	*	*	*
!	!	!	!	!LO:SIC:v:t=custos e-	!	!	!
!	!	!	!	!LO:LB:g=original	!	!	!
=17-	=17-	=17-	=17-	=17-	=17-	=17-	=17-
1C	ſum-	.	.	1e-X	eſ-	1cc	-re-
.	.	2A/	-ti-	.	.	.	.
2BB-/	-mus	1B-	-fex	1d	-ſet	2dd\	-na
*	*	*	*Xij	*	*	*	*
1B-\	Pon-	.	.	.	.	2d/	non
=18-	=18-	=18-	=18-	=18-	=18-	=18-	=18-
.	.	1r	.	1c	ſum-	2.f/	me-
2A\	-ti-	.	.	.	.	.	.
.	.	.	.	.	.	4f/	-tu-
*	*	*	*	*	*	*xywh-#635:4496,1700,3462,745	*
!	!	!	!	!	!	!LO:SIC:v:t=custos f	!
!	!	!	!	!	!	!LO:LB:g=original	!
1B-	-fex	2r	.	2B-/	-mus	2f/	-it
.	.	2B-\	ter-	1f\	Pon-	2d/	ter-
=19-	=19-	=19-	=19-	=19-	=19-	=19-	=19-
1r	.	1c	-re-	.	.	1g	-re-
.	.	.	.	2eny\	-ti-	.	.
2r	.	2d\	-na	1f	-fex	2f/	.
2BB-/	ter-	2B-\	non	.	.	2d/	.
=20-	=20-	=20-	=20-	=20-	=20-	=20-	=20-
1F	-re-	2.A/	me-	2r	.	2.a\	-na
.	.	.	.	2c/	ter-	.	.
.	.	4A/	-tu-	.	.	4a\	non
2G\	-na	1G	-it	1g	-re-	2.b-\	me-
2E-X\	non	.	.	.	.	.	.
.	.	.	.	.	.	8a\	.
.	.	.	.	.	.	8g\	.
=21-	=21-	=21-	=21-	=21-	=21-	=21-	=21-
2.D/	me-	2r	.	2a\	-na	4f/	.
.	.	.	.	.	.	4g/	.
*	*	*	*ij	*	*	*	*
.	.	2F/	ter-	2f\	no(n)	2.a\	.
4D/	-tu-	.	.	.	.	.	.
2C/	-it	1c	-re-	2.e\	mo-	.	.
.	.	.	.	.	.	8g/	.
.	.	.	.	.	.	8f/	.
*	*ij	*	*	*	*	*	*
2C/	ter-	.	.	.	.	4g/	.
.	.	.	.	4e\	-tu-	4a\	.
=22-	=22-	=22-	=22-	=22-	=22-	=22-	=22-
1G	-re-	1d	-na	1g	-it	4b-\	.
.	.	.	.	.	.	4a\	.
.	.	.	.	.	.	4g/	-tu-
.	.	.	.	.	.	4f/	.
2A\	-na	2c\	non	2r	.	2e/	-it
*	*	*	*	*	*	*	*Xij
*xywh-#179:4525,2271,3497,723	*	*	*	*	*	*	*
!LO:SIC:v:t=custos F	!	!	!	!	!	!	!
!LO:LB:g=original	!	!	!	!	!	!	!
2F\	non	1c\	me-	2f\	no(n)	2a\	non
=23-	=23-	=23-	=23-	=23-	=23-	=23-	=23-
1.G	me-	.	.	2e\	me-	1.g	me-
.	.	4B-\	.	4d\	.	.	.
.	.	4A/	.	4c/	.	.	.
!	!	!LO:N:acc=#	!	!	!	!	!
.	.	2.Bn\	.	2.d\	.	.	.
2G\	-tu-	.	.	.	.	2g/	-tu-
.	.	4B\	-tu-	4d\	-tu-	.	.
=24-	=24-	=24-	=24-	=24-	=24-	=24-	=24-
0.C	-it	0.c	-it	0e	-it	1g	-it
*	*Xij	*	*Xij	*	*	*	*
.	.	.	.	.	.	2r	.
.	.	.	.	.	.	2g/	ſed
*	*	*	*	*xywh-#483:4586,2225,3448,713	*	*	*
!	!	!	!	!LO:SIC:v:t=custos c	!	!	!
!	!	!	!	!LO:LB:g=original	!	!	!
=25-	=25-	=25-	=25-	=25-	=25-	=25-	=25-
.	.	.	.	2r	.	2g/	ad
.	.	.	.	2c/	ſed	2g/	cœ-
*	*	*	*	*	*	*xywh-#635:4473,2243,3462,714	*
!	!	!	!	!	!	!LO:SIC:v:t=custos cc	!
!	!	!	!	!	!	!LO:LB:g=original	!
1r	.	1r	.	2c/	ad	1.cc	-le-
.	.	.	.	2c/	cœ-	.	.
*	*	*xywh-#331:4489,2251,3419,706	*	*	*	*	*
!	!	!LO:SIC:v:t=custos c	!	!	!	!	!
!	!	!LO:LB:g=original	!	!	!	!	!
=26-	=26-	=26-	=26-	=26-	=26-	=26-	=26-
00r	.	00r	.	1.f	-le-	.	.
.	.	.	.	.	.	2a\	-ſti-
.	.	.	.	.	.	1cc	-a
.	.	.	.	2e\	-ſti-	.	.
=27-	=27-	=27-	=27-	=27-	=27-	=27-	=27-
.	.	.	.	2d\	-a	2.dd\	re-
.	.	.	.	2.B-/	re-	.	.
.	.	.	.	.	.	4cc\	.
.	.	.	.	.	.	1b-	.
.	.	.	.	4c/	.	.	.
.	.	.	.	4d\	.	.	.
.	.	.	.	4e\	.	.	.
=28-	=28-	=28-	=28-	=28-	=28-	=28-	=28-
2r	.	2r	.	0f	.	0a	-gna
1F	glo-	1c	glo-	.	.	.	.
2D/	-ri-	2d\	-ri-	.	.	.	.
=29-	=29-	=29-	=29-	=29-	=29-	=29-	=29-
4G\	-o-	4B-y\	-o-	1d	-gna	1r	.
4F\	.	4A/	.	.	.	.	.
4G\	.	4B-\	.	.	.	.	.
4A\	.	4c\	.	.	.	.	.
4B-\	.	4d\	.	2r	.	2r	.
4A\	.	4c\	.	.	.	.	.
4G\	.	4B-\	.	1d\	glo-	1b-\	glo-
4F\	.	4A/	.	.	.	.	.
=30-	=30-	=30-	=30-	=30-	=30-	=30-	=30-
1G	.	1B-	.	.	.	.	.
.	.	.	.	2e\	-ri-	2g/	-ri-
2F\	-ſus	2c\	-ſus	4f\	-o-	4a\	-o-
.	.	.	.	4e\	.	4g/	.
2F\	mi-	2c\	mi-	4f\	.	4a\	.
.	.	.	.	4g\	.	4b-\	.
=31-	=31-	=31-	=31-	=31-	=31-	=31-	=31-
0F	-gra-	0c	-gra-	4a\	.	4cc\	.
.	.	.	.	4g\	.	4b-\	.
.	.	.	.	4f\	.	4a\	.
.	.	.	.	4e\	.	4g/	.
.	.	.	.	1f	.	1a	.
=32-	=32-	=32-	=32-	=32-	=32-	=32-	=32-
1C	-uit	2c\	-uit	2e\	-ſus	2g/	-ſus
.	.	2G/	ſed	2e\	mi-	2cc\	mi-
*	*	*	*	*xywh-#483:4555,2743,3534,807	*	*	*
!	!	!	!	!LO:SIC:v:t=custos d	!	!LO:N:acc=#	!
!	!	!	!	!LO:LB:g=original	!	!	!
2r	.	2G/	ad	2d\	-gra-	2bn\	-gra-
2C/	ſed	2G/	cœ-	2e\	-uit	2cc\	-uit
*xywh-#179:4557,2806,3442,770	*	*	*	*	*	*	*
!LO:SIC:v:t=custos C	!	!	!	!	!	!	!
!LO:LB:g=original	!	!	!	!	!	!	!
=33-	=33-	=33-	=33-	=33-	=33-	=33-	=33-
2C/	ad	1.c	-le-	00r	.	00r	.
2C/	cœ-	.	.	.	.	.	.
1.F	-le-	.	.	.	.	.	.
.	.	2A/	-ſti-	.	.	.	.
=34-	=34-	=34-	=34-	=34-	=34-	=34-	=34-
.	.	1c	-a	.	.	.	.
2Eny\	-ſti-	.	.	.	.	.	.
2D/	-a	2.d\	re-	.	.	.	.
2.BB-/	re-	.	.	.	.	.	.
.	.	4c\	.	.	.	.	.
=35-	=35-	=35-	=35-	=35-	=35-	=35-	=35-
.	.	1B-	.	1r	.	1r	.
4C/	.	.	.	.	.	.	.
4D/	.	.	.	.	.	.	.
4E\	.	.	.	.	.	.	.
1F	.	1A	-gna	2r	.	2r	.
*	*	*	*	*	*ij	*	*ij
.	.	.	.	1c\	glo-	1cc\	glo-
*	*	*	*	*	*	*xywh-#635:4511,2818,3447,690	*
!	!	!	!	!	!	!LO:SIC:v:t=custos dd	!
!	!	!	!	!	!	!LO:LB:g=original	!
=36-	=36-	=36-	=36-	=36-	=36-	=36-	=36-
*lig	*	*	*	*	*	*	*
1F	-gna	1r	.	.	.	.	.
.	.	.	.	2A/	-ri-	2dd\	-ri-
*	*	*xywh-#331:4450,2789,3488,737	*	*	*	*	*
!	!	!LO:SIC:v:t=custos B-	!	!	!	!	!
!	!	!LO:LB:g=original	!	!	!	!	!
1G	.	2r	.	4d\	-o-	4b-y\	-o-
.	.	.	.	4c\	.	4a\	.
.	.	2B-\	mi-	4d\	.	4b-\	.
.	.	.	.	4e\	.	4cc\	.
*Xlig	*	*	*	*	*	*	*
=37-	=37-	=37-	=37-	=37-	=37-	=37-	=37-
0r	.	0B-	-gra-	4f\	.	4dd\	.
.	.	.	.	4e\	.	4cc\	.
.	.	.	.	4d\	.	4b-\	.
.	.	.	.	4c/	.	4a\	.
.	.	.	.	1d	.	1b-	.
=38-	=38-	=38-	=38-	=38-	=38-	=38-	=38-
2r	.	4F/	-uit	2c/	-ſus	2a\	-ſus
.	.	4G/	.	.	.	.	.
2F\	mi-	4A/	.	2c/	mi-	2a\	mi-
.	.	4B-\	.	.	.	.	.
1F	-gra-	1c	.	1.f	-gra-	1a	-gra-
=39-	=39-	=39-	=39-	=39-	=39-	=39-	=39-
0C	-uit	1r	.	.	.	1.g	.
.	.	.	.	4e\	.	.	.
.	.	.	.	4d\	.	.	.
.	.	1c	Du(m)	1e	.	.	.
.	.	.	.	.	.	4f/	.
.	.	.	.	.	.	4e/	.
=40-	=40-	=40-	=40-	=40-	=40-	=40-	=40-
00r	.	1B-	eſ-	1f	-uit	4d/	.
*	*	*	*	*	*Xij	*	*
.	.	.	.	.	.	4e/	.
.	.	.	.	.	.	4f/	.
.	.	.	.	.	.	4d/	.
.	.	1A	-ſet	1c	Du(m)	1e	-uit
*	*	*	*	*	*	*	*Xij
=41-	=41-	=41-	=41-	=41-	=41-	=41-	=41-
.	.	1G	ſum-	1B-	eſ-	1r	.
.	.	2F/	-mus	1A	-ſet	1cc	Du(m)
.	.	1f\	Pon-	.	.	.	.
*	*	*	*	*xywh-#483:4547,3338,3472,721	*	*	*
!	!	!	!	!LO:SIC:v:t=custos G	!	!	!
!	!	!	!	!LO:LB:g=original	!	!	!
=42-	=42-	=42-	=42-	=42-	=42-	=42-	=42-
00r	.	.	.	1G	ſum-	1b-	eſ-
.	.	2e\	-ti-	.	.	.	.
.	.	2f\	-fex	2F/	-mus	1a	-ſet
.	.	2F/	ter-	1f\	Pon-	.	.
=43-	=43-	=43-	=43-	=43-	=43-	=43-	=43-
.	.	1c	-re-	.	.	1g	ſum-
.	.	.	.	2e\	-ti-	.	.
.	.	2d\	-na	2f\	-fex	2f/	-mus
.	.	2A/	non	2c/	ter-	1cc\	Pon-
=44-	=44-	=44-	=44-	=44-	=44-	=44-	=44-
1G	Du(m)	2.d\	me-	1g	-re-	.	.
!	!	!	!	!	!	!LO:N:acc=#	!
.	.	.	.	.	.	2bn\	-ti-
.	.	4d\	-tu-	.	.	.	.
*	*	*	*	*	*	*xywh-#635:4480,3338,3385,714	*
!	!	!	!	!	!	!LO:SIC:v:t=custos cc	!
!	!	!	!	!	!	!LO:LB:g=original	!
1F	eſ-	1f	-it	2a\	-na	2cc\	-fex
.	.	.	.	2A/	non	2c/	ter-
=45-	=45-	=45-	=45-	=45-	=45-	=45-	=45-
1E	-ſet	2r	.	2.e\	me-	1g	-re-
*	*	*	*ij	*	*	*	*
.	.	1c	Du(m)	.	.	.	.
.	.	.	.	4e\	-tu-	.	.
1D	ſum-	.	.	1f	-it	2a\	-na
.	.	1B-\	eſ-	.	.	2f/	non
*xywh-#179:4549,3356,3410,754	*	*	*	*	*	*	*
!LO:SIC:v:t=custos C	!	!	!	!	!	!	!
!LO:LB:g=original	!	!	!	!	!	!	!
=46-	=46-	=46-	=46-	=46-	=46-	=46-	=46-
2C/	-mus	.	.	2r	.	2.cc\	me-
1F	Pon-	2A/	-ſet	2c/	ter-	.	.
.	.	.	.	.	.	4cc\	-tu-
.	.	1G	ſum-	1g	-re-	1cc	-it
2E\	-ti-	.	.	.	.	.	.
*	*	*xywh-#331:4504,3373,3503,653	*	*	*	*	*
!	!	!LO:SIC:v:t=custos F	!	!	!	!	!
!	!	!LO:LB:g=original	!	!	!	!	!
=47-	=47-	=47-	=47-	=47-	=47-	=47-	=47-
2F\	-fex	2F/	-mus	2a\	-na	2r	.
2C/	ter-	1c	Pon-	2e\	non	2g/	non
1G	-re-	.	.	2.d\	me-	2.g/	me-
!	!	!LO:N:acc=#	!	!	!	!	!
.	.	2Bn\	-ti-	.	.	.	.
.	.	.	.	4d\	-tu-	4g/	-tu-
=48-	=48-	=48-	=48-	=48-	=48-	=48-	=48-
1A	-na	2c\	-fex	2.a\	-it	2e/	-it
.	.	2F/	ter-	.	.	2a\	ter-
.	.	.	.	8g\	.	.	.
.	.	.	.	8f\	.	.	.
2r	.	1c	-re-	2e\	.	2.g/	-re-
*	*	*	*	*	*ij	*	*
2C/	ter-	.	.	2e\	ter-	.	.
.	.	.	.	.	.	4a\	.
*	*	*	*	*xywh-#483:4531,3856,3526,705	*	*	*
!	!	!	!	!LO:SIC:v:t=custos g	!	!	!
!	!	!	!	!LO:LB:g=original	!	!	!
=49-	=49-	=49-	=49-	=49-	=49-	=49-	=49-
1G	-re-	1d	-na	1g	-re-	1b-y	.
2A\	-na	2c\	non	2e\	-na	2a\	-na
2F\	non	1c\	me-	2f\	non	2a\	no(n)
=50-	=50-	=50-	=50-	=50-	=50-	=50-	=50-
1.G	me-	.	.	1.d	me-	1.g	me-
.	.	4B-y\	.	.	.	.	.
.	.	4A\	.	.	.	.	.
!	!	!LO:N:acc=#	!	!	!	!	!
.	.	2.Bn\	.	.	.	.	.
2G\	-tu-	.	.	2d\	-tu-	2g/	-tu-
.	.	4B\	-tu-	.	.	.	.
=51-	=51-	=51-	=51-	=51-	=51-	=51-	=51-
1C	-it	2c\	-it	2.e\	-it	1g	-it
*	*	*	*Xij	*	*Xij	*	*
.	.	2G/	ſed	.	.	.	.
.	.	.	.	4f\	.	.	.
2r	.	2G/	ad	0g	.	2r	.
2C/	ſed	2G/	cœ-	.	.	2e/	ſed
=52-	=52-	=52-	=52-	=52-	=52-	=52-	=52-
2C/	ad	1.c	-le-	.	.	2e/	ad
*	*	*	*	*	*	*xywh-#635:4519,3850,3470,722	*
!	!	!	!	!	!	!LO:SIC:v:t=custos e	!
!	!	!	!	!	!	!LO:LB:g=original	!
2C/	cę-	.	.	.	.	2e/	cœ-
1.F	-le-	.	.	1r	.	1.a	-le-
.	.	2A/	-ſti-	.	.	.	.
=53-	=53-	=53-	=53-	=53-	=53-	=53-	=53-
.	.	1c	-a	1r	.	.	-ſti-
2E\	-ſti-	.	.	.	.	2g/	-a
*xywh-#179:4549,3890,3575,770	*	*	*	*	*	*	*
!LO:SIC:v:t=custos D	!	!	!	!	!	!	!
!LO:LB:g=original	!	!	!	!	!	!	!
2D/	-a	2.d\	re-	0r	.	2f/	re-
2.BB-/	re-	.	.	.	.	2.d/	.
.	.	4c\	.	.	.	.	.
=54-	=54-	=54-	=54-	=54-	=54-	=54-	=54-
.	.	1B-y	.	.	.	.	.
4C/	.	.	.	.	.	4e/	.
4D/	.	.	.	.	.	4f/	.
4E\	.	.	.	.	.	4g/	.
1F	.	2A/	-gna	2r	.	0a	.
.	.	1A\	glo-	1c\	glo-	.	.
=55-	=55-	=55-	=55-	=55-	=55-	=55-	=55-
1F	-gna	.	.	.	.	.	.
.	.	2F/	-ri-	2A/	-ri-	.	.
1r	.	4G/	-o-	4B-/	-o-	1d	-gna
.	.	4F/	.	4A/	.	.	.
*	*	*xywh-#331:4489,3873,3450,729	*	*	*	*	*
!	!	!LO:SIC:v:t=custos G	!	!	!	!	!
!	!	!LO:LB:g=original	!	!	!	!	!
.	.	4G/	.	4B-/	.	.	.
.	.	4A/	.	4c/	.	.	.
=56-	=56-	=56-	=56-	=56-	=56-	=56-	=56-
0r	.	4B-\	.	4d\	.	2r	.
.	.	4A/	.	4c/	.	.	.
.	.	4G/	.	4B-/	.	1b-	glo-
.	.	4F/	.	4A/	.	.	.
.	.	1G	.	1B-	.	.	.
.	.	.	.	.	.	2g/	-ri-
=57-	=57-	=57-	=57-	=57-	=57-	=57-	=57-
2r	.	2F/	-ſus	1A	-ſus	4a\	-o-
.	.	.	.	.	.	4g/	.
2F\	mi-	2c\	mi-	.	.	4a\	.
.	.	.	.	.	.	4b-\	.
0F	-gra-	0c	-gra-	2r	.	4cc\	.
.	.	.	.	.	.	4b-\	.
.	.	.	.	2f\	mi-	4a\	.
.	.	.	.	.	.	4g/	.
=58-	=58-	=58-	=58-	=58-	=58-	=58-	=58-
.	.	.	.	1f	-gra-	1a	.
2C/	-uit	1c	-uit	1e	-uit	2.g/	-ſus
2C/	ſed	.	.	.	.	.	.
.	.	.	.	.	.	4f/	.
*	*	*	*	*xywh-#483:4539,4381,3511,862	*	*	*
!	!	!	!	!LO:SIC:v:t=custos c	!	!	!
!	!	!	!	!LO:LB:g=original	!	!	!
=59-	=59-	=59-	=59-	=59-	=59-	=59-	=59-
2C/	ad	2r	.	2r	.	4e/	.
.	.	.	.	.	.	4f/	.
2C/	cœ-	2G/	ſed	2c/	ſed	4g/	.
.	.	.	.	.	.	4e/	.
1.F	-le-	2A/	ad	2c/	ad	1f	.
.	.	2A/	cœ-	2c/	cœ-	.	.
=60-	=60-	=60-	=60-	=60-	=60-	=60-	=60-
.	.	1.d	-le-	1.f	-le-	0r	.
2D/	-ſti-	.	.	.	.	.	.
1F	-a	.	.	.	.	.	.
.	.	2c\	-ſti-	2e\	-ſti-	.	.
=61-	=61-	=61-	=61-	=61-	=61-	=61-	=61-
2.G\	re-	2B-\	-a	2d\	-a	2r	.
*	*	*	*	*	*	*	*ij
.	.	2.B-\	re-	2.G/	re-	1g	glo-
4F\	.	.	.	.	.	.	.
1E-X	.	.	.	.	.	.	.
.	.	4A/	.	4A/	.	.	.
.	.	2G/	-gna	4B-/	.	2g/	-ri-
.	.	.	.	4c/	.	.	.
*	*	*	*	*	*	*xywh-#635:4504,4402,3470,838	*
!	!	!	!	!	!	!LO:SIC:v:t=custos f	!
!	!	!	!	!	!	!LO:LB:g=original	!
=62-	=62-	=62-	=62-	=62-	=62-	=62-	=62-
1D	-gna	4A/	.	2d\	.	4f/	-o-
.	.	4G/	.	.	.	4e/	.
.	.	4F/	.	2A/	-gna	4f/	.
.	.	4E/	.	.	.	4g/	.
2r	.	2D/	.	1.d	glo-	4a\	.
.	.	.	.	.	.	4g/	.
1D/	glo-	1A\	glo-	.	.	4f/	.
.	.	.	.	.	.	4e/	.
*xywh-#179:4533,4495,3568,691	*	*	*	*	*	*	*
!LO:SIC:v:t=custos D	!	!	!	!	!	!	!
!LO:LB:g=original	!	!	!	!	!	!	!
=63-	=63-	=63-	=63-	=63-	=63-	=63-	=63-
.	.	.	.	.	.	1f	.
2D/	-ri-	2A/	-ri-	2d\	-ri-	.	.
*	*	*xywh-#331:4520,4464,3427,737	*	*	*	*	*
!	!	!LO:SIC:v:t=custos c	!	!	!	!	!
!	!	!LO:LB:g=original	!	!	!	!	!
4C/	-o-	1c	-o-	0.e-X	-o-	1g	-ſus
*	*	*	*	*	*	*	*Xij
4BB-/	.	.	.	.	.	.	.
4C/	.	.	.	.	.	.	.
4D/	.	.	.	.	.	.	.
=64-	=64-	=64-	=64-	=64-	=64-	=64-	=64-
4E-X\	.	2G/	-ſus	.	.	2r	.
4D/	.	.	.	.	.	.	.
4C/	.	1c	glo-	.	.	1g	glo-
4BB-/	.	.	.	.	.	.	.
1C	.	.	.	.	.	.	.
.	.	2c\	-ri-	.	.	2a\	-ri-
=65-	=65-	=65-	=65-	=65-	=65-	=65-	=65-
2BB-/	-ſus	4d\	-o-	1f	-ſus	4b-\	-o-
.	.	4c\	.	.	.	4a\	.
2BB-/	mi-	4d\	.	.	.	4b-\	.
.	.	4e\	.	.	.	4cc\	.
0BB-	-gra-	4f\	.	2r	.	4dd\	.
.	.	4e\	.	.	.	4cc\	.
.	.	4d\	.	2f\	mi-	4b-\	.
.	.	4c\	.	.	.	4a\	.
=66-	=66-	=66-	=66-	=66-	=66-	=66-	=66-
.	.	1d	.	0f	-gra-	1b-	.
2FF/	-uit	2c\	-ſus	.	.	1a	-ſus
2F\	mi-	2A/	mi-	.	.	.	.
=67-	=67-	=67-	=67-	=67-	=67-	=67-	=67-
0F	-gra-	0A	-gra-	00.c	-uit.	2r	.
.	.	.	.	.	.	2f/	mi-
.	.	.	.	.	.	1.f	-gra-
=68-	=68-	=68-	=68-	=68-	=68-	=68-	=68-
00C	-uit.	00G	-uit.	.	.	.	.
.	.	.	.	.	.	4e/	.
.	.	.	.	.	.	4d/	.
.	.	.	.	.	.	0.el	-uit.
=69-	=69-	=69-	=69-	=69-	=69-	=69-	=69-
.	.	.	.	.	.	.	.
=||	=||	=||	=||	=||	=||	=||	=||
*-	*-	*-	*-	*-	*-	*-	*-
!!!RDF**kern: l = terminal long
!!!system-decoration: [(s1,s2,s3,s4)]
!!!ENC: Mateusz Solarz
!!!END: 2022-07-05
!!!ENC: Urszula Świątek
!!!END: 2022-07-28
!!!ENC-iiif: Lidia Bialucha
!!!END-iiif: 2022-09-13
